img/icons/Chart.svg

<svg width="24" height="24" viewBox="0 0 24 24" fill="none" xmlns="http://www.w3.org/2000/svg">
<path d="M9 20V11H4.59961C4.03956 11 3.75981 11 3.5459 11.109C3.35774 11.2049 3.20487 11.3579 3.10899 11.546C3 11.7599 3 12.0399 3 12.6V20H9ZM9 20H15M9 20V5.59998C9 5.03992 9 4.75993 9.10899 4.54602C9.20487 4.35786 9.35774 4.20487 9.5459 4.10899C9.75981 4 10.0396 4 10.5996 4H13.3996C13.9597 4 14.2405 4 14.4544 4.10899C14.6425 4.20487 14.7948 4.35786 14.8906 4.54602C14.9996 4.75993 15 5.03992 15 5.59998V20M15 20L21 20V9.59998C21 9.03992 20.9996 8.75993 20.8906 8.54602C20.7948 8.35786 20.6425 8.20487 20.4544 8.10899C20.2405 8 19.9601 8 19.4 8H15V20Z" stroke="#8C8D92" stroke-width="2" stroke-linecap="round" stroke-linejoin="round"/>
</svg>

<svg width="24" height="24" fill="none" xmlns="http://www.w3.org/2000/svg"><path d="M9 20v-9H4.6c-.56 0-.84 0-1.054.109a1 1 0 0 0-.437.437C3 11.76 3 12.04 3 12.6V20h6Zm0 0h6m-6 0V5.6c0-.56 0-.84.109-1.054a1 1 0 0 1 .437-.437C9.76 4 10.04 4 10.6 4h2.8c.56 0 .84 0 1.054.109.188.096.34.249.437.437C15 4.76 15 5.04 15 5.6V20m0 0h6V9.6c0-.56 0-.84-.11-1.054a.998.998 0 0 0-.436-.437C20.241 8 19.96 8 19.4 8H15v12Z" stroke="#8C8D92" stroke-width="2" stroke-linecap="round" stroke-linejoin="round"/></svg>
